X:1
T:Green Grows the Laurel
M:3/4
L:1/4
K:F
 c| A c c| F A A| C E G| B2 B| B A B| C E G| d c3/2 =B/2| c2 c| A c c|\
 F A A| C E G| B2 G/2A/2| B A B| C E G| B A G| F2|
